packages/katcn/src/icons/svg/moon-solid.svg

<svg width="24" height="25" viewBox="0 0 24 25" fill="none" xmlns="http://www.w3.org/2000/svg">
<path d="M12.3 22.968C9.60002 22.968 7.00002 21.968 5.00002 19.968C1.00002 15.968 1.00002 9.66802 4.90002 5.76802C6.30001 4.26802 8.20002 3.26802 10.3 2.96802C10.7 2.86802 11.1 3.06802 11.3 3.46802C11.5 3.86802 11.5 4.26802 11.2 4.56802C9.00002 7.06802 9.20002 10.968 11.6 13.368C14 15.768 17.8 15.968 20.3 13.768C20.6 13.468 21.1 13.468 21.4 13.668C21.8 13.868 22 14.268 21.9 14.668C21.6 16.768 20.6 18.568 19.2 20.068C17.3 21.968 14.8 22.968 12.3 22.968Z" fill="black"/>
</svg>

<svg xmlns="http://www.w3.org/2000/svg" fill="none" viewBox="0 0 24 25"><path fill="#000" d="M12.3 22.968c-2.7 0-5.3-1-7.3-3-4-4-4-10.3-.1-14.2 1.4-1.5 3.3-2.5 5.4-2.8.4-.1.8.1 1 .5s.2.8-.1 1.1c-2.2 2.5-2 6.4.4 8.8s6.2 2.6 8.7.4c.3-.3.8-.3 1.1-.1.4.2.6.6.5 1-.3 2.1-1.3 3.9-2.7 5.4-1.9 1.9-4.4 2.9-6.9 2.9"/></svg>
